SVG-Logos/Security/slsa-logo.svg

<svg width="101" height="28" viewBox="0 0 101 28" fill="none" xmlns="http://www.w3.org/2000/svg">
<path d="M44.1496 5.35405C39.7576 5.35405 37.1468 7.52565 37.1468 10.6C37.1468 13.3328 39.0012 14.7236 41.9048 15.3092L45.5648 16.0412C47.1508 16.3584 47.8096 17.0416 47.8096 18.0664C47.8096 19.4572 46.6872 20.1648 44.6132 20.1648C42.4416 20.1648 40.2944 19.1888 38.6596 17.2612L36.5368 19.9208C38.318 21.8484 41.0508 23.0684 44.418 23.0684C48.5416 23.0684 51.2012 21.092 51.2012 17.6516C51.2012 15.0408 49.542 13.6256 46.5164 13.0156L43.1004 12.3324C41.3436 11.9908 40.5628 11.4296 40.5628 10.2584C40.5628 9.01405 41.7828 8.25765 43.9056 8.25765C46.004 8.25765 47.5656 8.91645 49.298 10.5756L51.2988 8.11125C49.4444 6.30565 47.2484 5.35405 44.1496 5.35405ZM57.4026 5.62245H54.0842V22.8H66.6014V19.7988H57.4026V5.62245ZM75.3406 5.35405C70.9486 5.35405 68.3378 7.52565 68.3378 10.6C68.3378 13.3328 70.1922 14.7236 73.0958 15.3092L76.7558 16.0412C78.3418 16.3584 79.0006 17.0416 79.0006 18.0664C79.0006 19.4572 77.8782 20.1648 75.8042 20.1648C73.6326 20.1648 71.4854 19.1888 69.8506 17.2612L67.7278 19.9208C69.509 21.8484 72.2418 23.0684 75.609 23.0684C79.7326 23.0684 82.3922 21.092 82.3922 17.6516C82.3922 15.0408 80.733 13.6256 77.7074 13.0156L74.2914 12.3324C72.5346 11.9908 71.7538 11.4296 71.7538 10.2584C71.7538 9.01405 72.9738 8.25765 75.0966 8.25765C77.195 8.25765 78.7566 8.91645 80.489 10.5756L82.4898 8.11125C80.6354 6.30565 78.4394 5.35405 75.3406 5.35405ZM89.8653 5.62245L83.3749 22.8H86.7177L88.2793 18.652H95.3309L96.8925 22.8H100.382L93.8669 5.62245H89.8653ZM91.8417 8.89205L94.3793 15.8704H89.2309L91.8417 8.89205Z" fill="white"/>
<g clip-path="url(#clip0_123_1127)">
<path fill-rule="evenodd" clip-rule="evenodd" d="M26.1052 3.06368e-05L26.1822 -0.0870557L24.6836 -1.4115L24.0214 -0.662191C23.8237 -0.438506 23.6232 -0.217752 23.4199 3.06368e-05H2.86102e-06V1.55841L-1.37598 2.40646L-0.851297 3.25776C-0.576602 3.70346 -0.292727 4.14168 2.86102e-06 4.57224V23.2564C-0.00678182 23.2566 -0.0135669 23.2567 -0.0203521 23.2569L-1.02014 23.2772L-0.979435 25.2768L2.86102e-06 25.2569V28H28V10.2632C28.2881 9.84855 28.5679 9.42662 28.8392 8.99759C29.2949 8.31173 29.6333 7.72532 29.8598 7.306C29.9737 7.09521 30.0595 6.92629 30.1178 6.80776C30.147 6.74849 30.1693 6.70178 30.1849 6.6687L30.2032 6.62942L30.2086 6.61769L30.2104 6.61384L30.211 6.61243L30.2113 6.61185L30.2114 6.61159C30.2114 6.61148 30.2115 6.61136 29.3557 6.22515L30.2115 6.61136L30.6228 5.69987L28.7998 4.87722L28.389 5.78758L28.3889 5.78779L28.3888 5.78797L28.3887 5.7883L28.3886 5.78849L28.3885 5.7887L28.3869 5.79219L28.3756 5.81651C28.3647 5.8395 28.3474 5.87583 28.3234 5.92448C28.2755 6.0218 28.2013 6.16824 28.1002 6.35548C28.0693 6.41267 28.0359 6.47362 28 6.53811V3.06368e-05H26.1052ZM26.1052 3.06368e-05H23.4199C19.0106 4.7237 13.3015 8.04927 7.02153 9.5558C4.64657 7.44767 2.56056 4.98169 0.851303 2.2084L0.326623 1.3571L2.86102e-06 1.55841V4.57224C1.74153 7.13373 3.79648 9.424 6.09647 11.4035C9.40244 14.2487 13.2147 16.4518 17.3304 17.8956C13.8457 20.1731 9.93795 21.7853 5.80801 22.6166C3.91252 22.9981 1.97008 23.2151 2.86102e-06 23.2564V25.2569L0.0203578 25.2564C2.11717 25.2138 4.18489 24.9834 6.20264 24.5772C11.2832 23.5546 16.0461 21.4181 20.1597 18.3593C23.1618 16.1271 25.8183 13.4035 28 10.2632V6.53811C27.8007 6.89626 27.5241 7.36351 27.1674 7.89971L27.1609 7.90952L27.1546 7.91948C25.0522 11.2473 22.4028 14.1226 19.3621 16.4554C15.5859 15.3136 12.0513 13.5038 8.92628 11.123C15.3227 9.29719 21.0915 5.67309 25.52 0.662252L26.1052 3.06368e-05Z" fill="#FF6740"/>
</g>
<defs>
<clipPath id="clip0_123_1127">
<path d="M0 5.6C0 2.50721 2.50721 0 5.6 0H22.4C25.4928 0 28 2.50721 28 5.6V22.4C28 25.4928 25.4928 28 22.4 28H5.6C2.50721 28 0 25.4928 0 22.4V5.6Z" fill="white"/>
</clipPath>
</defs>
</svg>

<svg xmlns="http://www.w3.org/2000/svg" fill="none" viewBox="0 0 101 28"><path fill="#fff" d="M44.15 5.354c-4.392 0-7.003 2.172-7.003 5.246 0 2.733 1.854 4.124 4.758 4.71l3.66.731c1.586.317 2.245 1 2.245 2.025 0 1.391-1.123 2.099-3.197 2.099-2.171 0-4.319-.976-5.953-2.904l-2.123 2.66c1.781 1.927 4.514 3.147 7.881 3.147 4.124 0 6.783-1.976 6.783-5.416 0-2.611-1.659-4.026-4.685-4.636l-3.416-.684c-1.756-.341-2.537-.902-2.537-2.074 0-1.244 1.22-2 3.343-2 2.098 0 3.66.658 5.392 2.318l2-2.465c-1.854-1.805-4.05-2.757-7.148-2.757Zm13.253.268h-3.319V22.8h12.517v-3.001h-9.198V5.622Zm17.938-.268c-4.392 0-7.003 2.172-7.003 5.246 0 2.733 1.854 4.124 4.758 4.71l3.66.731c1.586.317 2.245 1 2.245 2.025 0 1.391-1.123 2.099-3.197 2.099-2.171 0-4.319-.976-5.953-2.904l-2.123 2.66c1.781 1.927 4.514 3.147 7.881 3.147 4.124 0 6.783-1.976 6.783-5.416 0-2.611-1.659-4.026-4.685-4.636l-3.416-.684c-1.756-.341-2.537-.902-2.537-2.074 0-1.244 1.22-2 3.343-2 2.098 0 3.66.658 5.392 2.318l2-2.465c-1.854-1.805-4.05-2.757-7.148-2.757Zm14.524.268L83.375 22.8h3.343l1.561-4.148h7.052l1.561 4.148h3.49L93.867 5.622h-4.002Zm1.977 3.27 2.537 6.978h-5.148l2.61-6.978Z"/><g clip-path="url(#a)"><path fill="#FF6740" fill-rule="evenodd" d="m26.105 0 .077-.087-1.498-1.325-.663.75c-.197.223-.398.444-.601.662H0v1.558l-1.376.848.525.852c.274.445.558.884.851 1.314v18.684h-.02l-1 .021.04 2 .98-.02V28h28V10.263c.288-.414.568-.836.84-1.265.455-.686.793-1.273 1.02-1.692a14.79 14.79 0 0 0 .325-.637l.018-.04.006-.011.001-.004.001-.002-.855-.387.855.386.412-.911-1.823-.823-.411.91v.001l-.002.004-.011.025-.053.107a12.986 12.986 0 0 1-.323.614V0h-1.895Zm0 0H23.42A32.963 32.963 0 0 1 7.022 9.556a32.904 32.904 0 0 1-6.17-7.348l-.525-.85-.327.2v3.014a34.899 34.899 0 0 0 6.096 6.831 34.975 34.975 0 0 0 11.234 6.493A32.949 32.949 0 0 1 0 23.256v2h.02a34.912 34.912 0 0 0 20.14-6.897A34.901 34.901 0 0 0 28 10.263V6.538c-.2.358-.476.826-.833 1.362l-.006.01-.006.01a32.904 32.904 0 0 1-7.793 8.535 32.972 32.972 0 0 1-10.436-5.332A34.961 34.961 0 0 0 25.52.663L26.105 0Z" clip-rule="evenodd"/></g><defs><clipPath id="a"><path fill="#fff" d="M0 5.6A5.6 5.6 0 0 1 5.6 0h16.8A5.6 5.6 0 0 1 28 5.6v16.8a5.6 5.6 0 0 1-5.6 5.6H5.6A5.6 5.6 0 0 1 0 22.4V5.6Z"/></clipPath></defs></svg>
